X: 190
T:The High Road to Linton
M:4/4
L:1/8
F:http://blackrosetheband.googlepages.com/ABCTUNES.ABC May 2009
S:Source: Angus Sessions Podcast
R:Reel
K:Amix
|:"A"ceef "D"a2ae|f2fe faaf|"A"ceef a2ae|"D"faec "E"(3BcBA2:|
|:"A"ceeg "D"fddf|"A"ecce "E"dBBd|"A"ceeg "D"fddf|"A"ecac "E"B2A2:|
|:"A"a2a2 ef a2|efae "D"faef|"A"a2a2 efae|"D"faec "E"(3BcBA2:|
|:"A"c2ec "D"defd|"A"c2ec "E"BcdB|"A"c2ec "D"def^g|"A"afec "E"(3BcB A2:|

